flaticon/transport/crane-1.svg

<svg xmlns="http://www.w3.org/2000/svg" width="32" height="32" viewBox="0 0 24 24">
    <path d="M 23.632812 11.835938 L 20.101562 7.941406 C 19.816406 7.65625 19.453125 7.492188 19.085938 7.492188 L 15.351562 7.492188 C 14.703125 7.492188 14.214844 8.019531 14.214844 8.628906 L 14.214844 14.84375 L 12.539062 14.84375 L 11.089844 11.351562 C 11.074219 11.3125 11.054688 11.277344 11.039062 11.246094 L 14.316406 5.847656 C 15.199219 5.628906 15.839844 4.839844 15.839844 3.878906 C 15.839844 2.742188 14.945312 1.847656 13.808594 1.847656 C 13.34375 1.847656 12.917969 2 12.578125 2.253906 L 0.410156 2.253906 C 0.289062 2.253906 0.167969 2.335938 0.0859375 2.417969 C 0.00390625 2.539062 -0.0351562 2.660156 0.0429688 2.78125 L 1.34375 6.722656 C 1.585938 7.453125 2.277344 7.941406 3.050781 7.941406 L 5.28125 7.941406 C 6.175781 7.941406 6.90625 7.207031 6.90625 6.316406 L 6.90625 4.691406 L 11.339844 4.691406 L 7.96875 10.230469 C 7.523438 10.46875 7.160156 10.851562 6.945312 11.351562 L 5.496094 14.84375 L 0.816406 14.84375 L 0.816406 18.738281 C 0.816406 19.269531 1.261719 19.714844 1.789062 19.714844 L 2.0625 19.714844 C 2.257812 21.101562 3.429688 22.152344 4.875 22.152344 C 6.320312 22.152344 7.496094 21.101562 7.691406 19.714844 L 16.273438 19.714844 C 16.46875 21.101562 17.640625 22.152344 19.085938 22.152344 C 20.53125 22.152344 21.707031 21.101562 21.902344 19.714844 L 22.984375 19.714844 C 23.511719 19.714844 23.960938 19.269531 24 18.738281 L 24 12.773438 C 24 12.40625 23.878906 12.082031 23.632812 11.835938 Z M 22.984375 12.40625 L 17.058594 12.40625 L 17.058594 8.347656 L 19.085938 8.347656 C 19.25 8.347656 19.371094 8.386719 19.492188 8.507812 Z M 15.027344 3.878906 C 15.027344 4.570312 14.5 5.097656 13.808594 5.097656 C 13.28125 5.097656 12.8125 4.730469 12.644531 4.238281 C 12.648438 4.199219 12.644531 4.160156 12.632812 4.125 C 12.601562 4.0625 12.59375 3.980469 12.589844 3.90625 C 12.589844 3.894531 12.589844 3.882812 12.589844 3.875 C 12.59375 3.1875 13.121094 2.660156 13.808594 2.660156 C 14.5 2.660156 15.027344 3.1875 15.027344 3.878906 Z M 6.09375 3.066406 L 6.09375 4.691406 L 1.527344 4.691406 L 0.976562 3.066406 Z M 5.28125 7.128906 L 3.050781 7.128906 C 2.644531 7.128906 2.238281 6.84375 2.113281 6.4375 L 1.800781 5.503906 L 6.09375 5.503906 L 6.09375 6.316406 C 6.09375 6.761719 5.730469 7.128906 5.28125 7.128906 Z M 6.90625 3.066406 L 11.941406 3.066406 C 11.820312 3.3125 11.777344 3.59375 11.777344 3.878906 L 6.90625 3.878906 Z M 12.085938 4.964844 C 12.355469 5.402344 12.789062 5.722656 13.308594 5.847656 L 10.480469 10.496094 C 10.074219 10.171875 9.585938 9.96875 9.058594 9.96875 Z M 7.71875 11.675781 C 7.828125 11.371094 8.03125 11.132812 8.285156 10.980469 C 8.328125 10.976562 8.367188 10.964844 8.410156 10.945312 C 9.007812 10.664062 9.765625 10.859375 10.175781 11.40625 C 10.234375 11.492188 10.28125 11.582031 10.316406 11.675781 L 11.65625 14.84375 L 6.378906 14.84375 Z M 4.875 21.339844 C 3.738281 21.339844 2.847656 20.445312 2.847656 19.308594 C 2.847656 18.171875 3.738281 17.277344 4.875 17.277344 C 6.011719 17.277344 6.90625 18.171875 6.90625 19.308594 C 6.90625 20.445312 6.011719 21.339844 4.875 21.339844 Z M 19.085938 21.339844 C 17.949219 21.339844 17.058594 20.445312 17.058594 19.308594 C 17.058594 18.171875 17.949219 17.277344 19.085938 17.277344 C 20.222656 17.277344 21.117188 18.171875 21.117188 19.308594 C 21.117188 20.445312 20.222656 21.339844 19.085938 21.339844 Z M 22.984375 18.902344 L 21.902344 18.902344 C 21.707031 17.515625 20.53125 16.464844 19.085938 16.464844 C 19.082031 16.464844 19.074219 16.464844 19.066406 16.464844 C 19.058594 16.464844 19.054688 16.464844 19.046875 16.464844 C 17.625 16.464844 16.449219 17.523438 16.246094 18.902344 L 7.691406 18.902344 C 7.507812 17.601562 6.464844 16.597656 5.140625 16.480469 C 5.132812 16.476562 5.125 16.476562 5.113281 16.476562 C 5.082031 16.472656 5.046875 16.472656 5.011719 16.46875 C 4.96875 16.46875 4.921875 16.464844 4.875 16.464844 C 4.828125 16.464844 4.785156 16.46875 4.738281 16.46875 C 4.703125 16.472656 4.671875 16.472656 4.636719 16.476562 C 4.628906 16.476562 4.617188 16.476562 4.609375 16.480469 C 3.289062 16.597656 2.246094 17.601562 2.0625 18.902344 L 1.789062 18.902344 C 1.707031 18.902344 1.628906 18.820312 1.628906 18.738281 L 1.628906 15.652344 L 15.027344 15.652344 L 15.027344 8.671875 C 15.027344 8.46875 15.1875 8.347656 15.351562 8.347656 L 16.246094 8.347656 L 16.246094 12.527344 C 16.246094 12.894531 16.570312 13.21875 16.933594 13.21875 L 23.148438 13.21875 L 23.148438 14.4375 L 21.117188 14.4375 C 20.875 14.4375 20.710938 14.597656 20.710938 14.84375 C 20.710938 15.085938 20.875 15.25 21.117188 15.25 L 23.148438 15.25 L 23.148438 18.738281 C 23.148438 18.820312 23.066406 18.902344 22.984375 18.902344 Z M 22.984375 18.902344"/>
    <path d="M4.875 18.496094C4.429688 18.496094 4.0625 18.863281 4.0625 19.308594 4.0625 19.753906 4.429688 20.121094 4.875 20.121094 5.324219 20.121094 5.6875 19.753906 5.6875 19.308594 5.6875 18.863281 5.324219 18.496094 4.875 18.496094zM19.085938 18.496094C18.640625 18.496094 18.273438 18.863281 18.273438 19.308594 18.273438 19.753906 18.640625 20.121094 19.085938 20.121094 19.535156 20.121094 19.898438 19.753906 19.898438 19.308594 19.898438 18.863281 19.535156 18.496094 19.085938 18.496094zM9.015625 12C8.773438 12 8.613281 12.164062 8.613281 12.40625 8.613281 12.648438 8.773438 12.8125 9.015625 12.8125 9.261719 12.8125 9.421875 12.648438 9.421875 12.40625 9.421875 12.164062 9.261719 12 9.015625 12zM9.015625 12"/>
</svg>

<svg xmlns="http://www.w3.org/2000/svg" width="32" height="32" viewBox="0 0 24 24">
    <path d="M23.633 11.836L20.102 7.94c-.286-.285-.649-.449-1.016-.449h-3.734c-.649 0-1.137.528-1.137 1.137v6.215h-1.676l-1.45-3.492c-.015-.04-.034-.075-.05-.106l3.277-5.398a2.008 2.008 0 0 0 1.524-1.97 2.012 2.012 0 0 0-2.031-2.03c-.465 0-.891.152-1.23.406H.41c-.12 0-.242.082-.324.164-.082.121-.121.242-.043.363l1.3 3.942c.243.73.934 1.218 1.708 1.218h2.23c.895 0 1.625-.734 1.625-1.625V4.691h4.434l-3.371 5.54a2.28 2.28 0 0 0-1.024 1.12l-1.449 3.493H.816v3.894c0 .532.446.977.973.977h.274a2.823 2.823 0 0 0 2.812 2.437 2.827 2.827 0 0 0 2.816-2.437h8.582a2.823 2.823 0 0 0 2.813 2.437 2.827 2.827 0 0 0 2.816-2.437h1.082c.528 0 .977-.445 1.016-.977v-5.965c0-.367-.121-.691-.367-.937zm-.649.57H17.06V8.348h2.027c.164 0 .285.039.406.16zM15.027 3.88c0 .691-.527 1.219-1.218 1.219-.528 0-.996-.368-1.164-.86a.274.274 0 0 0-.012-.113.575.575 0 0 1-.043-.219v-.031a1.2 1.2 0 0 1 1.219-1.215c.691 0 1.218.527 1.218 1.219zm-8.933-.813v1.625H1.527l-.55-1.625zM5.28 7.13h-2.23c-.406 0-.813-.285-.938-.691l-.312-.934h4.293v.812a.814.814 0 0 1-.813.813zm1.625-4.063h5.035a1.835 1.835 0 0 0-.164.813h-4.87zm5.18 1.899c.27.437.703.758 1.223.883l-2.829 4.648c-.406-.324-.894-.527-1.421-.527zm-4.367 6.71c.11-.304.312-.542.566-.695a.376.376 0 0 0 .125-.035c.598-.28 1.356-.086 1.766.461.058.086.105.176.14.27l1.34 3.168H6.38zM4.875 21.34a2.01 2.01 0 0 1-2.027-2.031 2.01 2.01 0 0 1 2.027-2.032c1.137 0 2.031.895 2.031 2.032a2.012 2.012 0 0 1-2.031 2.03zm14.21 0a2.01 2.01 0 0 1-2.026-2.031 2.01 2.01 0 0 1 2.027-2.032c1.137 0 2.031.895 2.031 2.032a2.012 2.012 0 0 1-2.031 2.03zm3.9-2.438h-1.083a2.827 2.827 0 0 0-2.816-2.437h-.04c-1.421 0-2.597 1.058-2.8 2.437H7.691a2.817 2.817 0 0 0-2.55-2.422c-.008-.003-.016-.003-.028-.003-.031-.004-.066-.004-.101-.008-.043 0-.09-.004-.137-.004-.047 0-.09.004-.137.004-.035.004-.066.004-.101.008-.008 0-.02 0-.028.003a2.817 2.817 0 0 0-2.546 2.422h-.274c-.082 0-.16-.082-.16-.164v-3.086h13.398v-6.98c0-.203.16-.324.325-.324h.894v4.18a.71.71 0 0 0 .688.69h6.214v1.22h-2.03c-.243 0-.407.16-.407.406 0 .242.164.406.406.406h2.031v3.488a.176.176 0 0 1-.164.164zm0 0"/>
    <path d="M4.875 18.496a.817.817 0 0 0-.813.813c0 .445.368.812.813.812.45 0 .813-.367.813-.812a.814.814 0 0 0-.813-.813zm0 0M19.086 18.496a.817.817 0 0 0-.813.813c0 .445.368.812.813.812.45 0 .812-.367.812-.812a.814.814 0 0 0-.812-.813zm0 0M9.016 12c-.243 0-.403.164-.403.406 0 .242.16.406.403.406.246 0 .406-.164.406-.406 0-.242-.16-.406-.406-.406zm0 0"/>
</svg>
